assets/home/Latency.svg

<svg xmlns="http://www.w3.org/2000/svg" xmlns:xlink="http://www.w3.org/1999/xlink" width="120" height="120" fill="none" xmlns:v="https://vecta.io/nano"><path fill-rule="evenodd" d="M35.059 103.337C20.088 94.693 10 78.516 10 60c0-27.596 22.404-50 50-50s50 22.404 50 50c0 18.493-10.063 34.654-25.005 43.305-2.389 1.383-3.205 4.445-1.822 6.833s4.444 3.204 6.832 1.821C107.932 101.58 120 82.188 120 60c0-33.115-26.885-60-60-60S0 26.885 0 60c0 22.214 12.097 41.626 30.059 51.997 2.39 1.38 5.451.559 6.831-1.83s.559-5.451-1.831-6.83z" fill="url(#A)"/><path d="M60 120a9 9 0 1 0 0-18 9 9 0 1 0 0 18z" fill="url(#B)"/><g fill-rule="evenodd"><path d="M51.392 88.201c2.628-1.182 5.542-1.838 8.608-1.838s5.98.656 8.608 1.838c2.516 1.133 5.479.009 6.611-2.508s.008-5.479-2.509-6.611c-3.88-1.746-8.182-2.719-12.71-2.719s-8.83.973-12.71 2.719c-2.517 1.132-3.641 4.094-2.509 6.611s4.095 3.641 6.611 2.508z" fill="url(#C)"/><path d="M44.766 68.222c4.643-2.118 9.802-3.296 15.234-3.296s10.591 1.178 15.234 3.296c2.511 1.145 5.479.036 6.624-2.475s.037-5.478-2.474-6.624C73.476 56.429 66.912 54.926 60 54.926s-13.476 1.503-19.384 4.197c-2.511 1.146-3.619 4.114-2.474 6.624s4.113 3.62 6.624 2.475z" fill="url(#D)"/><path d="M37.921 47.805C44.644 44.719 52.123 43 60 43s15.356 1.719 22.079 4.805c2.508 1.151 5.479.049 6.63-2.459s.049-5.478-2.459-6.629A62.77 62.77 0 0 0 60 33a62.77 62.77 0 0 0-26.25 5.717c-2.508 1.151-3.61 4.121-2.459 6.629s4.122 3.61 6.63 2.459z" fill="url(#E)"/></g><defs><linearGradient id="A" x1="17" y1="18" x2="99" y2="105" xlink:href="#F"><stop stop-color="#ff0cf5"/><stop offset="1" stop-color="#0575e6"/></linearGradient><linearGradient id="B" x1="51" y1="111" x2="69" y2="111" xlink:href="#F"><stop stop-color="#a83afe"/><stop offset="1" stop-color="#6e59fe"/></linearGradient><linearGradient id="C" x1="33.969" y1="107.394" x2="86.031" y2="107.394" xlink:href="#F"><stop stop-color="#a83afe"/><stop offset="1" stop-color="#6e59fe"/></linearGradient><linearGradient id="D" x1="28" y1="58" x2="90" y2="83" xlink:href="#F"><stop stop-color="#ff0cf5"/><stop offset="1" stop-color="#0575e6"/></linearGradient><linearGradient id="E" x1="36" y1="30" x2="80" y2="56" xlink:href="#F"><stop stop-color="#ff0cf5"/><stop offset="1" stop-color="#0575e6"/></linearGradient><linearGradient id="F" gradientUnits="userSpaceOnUse"/></defs></svg>

<svg width="120" height="120" viewBox="0 0 120 120" fill="none" xmlns="http://www.w3.org/2000/svg">
<path fill-rule="evenodd" clip-rule="evenodd" d="M35.059 103.337C20.088 94.693 10 78.516 10 60C10 32.404 32.404 10 60 10C87.596 10 110 32.404 110 60C110 78.493 99.937 94.654 84.995 103.305C82.606 104.688 81.79 107.75 83.173 110.138C84.556 112.526 87.617 113.342 90.005 111.959C107.932 101.58 120 82.188 120 60C120 26.885 93.115 0 60 0C26.885 0 0 26.885 0 60C0 82.214 12.097 101.626 30.059 111.997C32.449 113.377 35.51 112.556 36.89 110.167C38.269 107.777 37.449 104.716 35.059 103.337Z" fill="url(#paint0_linear_5_131)"/>
<path d="M60 120C64.9706 120 69 115.971 69 111C69 106.029 64.9706 102 60 102C55.0294 102 51 106.029 51 111C51 115.971 55.0294 120 60 120Z" fill="url(#paint1_linear_5_131)"/>
<path fill-rule="evenodd" clip-rule="evenodd" d="M51.392 88.201C54.02 87.019 56.934 86.363 60 86.363C63.066 86.363 65.98 87.019 68.608 88.201C71.124 89.334 74.087 88.21 75.219 85.693C76.351 83.176 75.227 80.214 72.71 79.082C68.83 77.336 64.528 76.363 60 76.363C55.472 76.363 51.17 77.336 47.29 79.082C44.773 80.214 43.649 83.176 44.781 85.693C45.913 88.21 48.876 89.334 51.392 88.201Z" fill="url(#paint2_linear_5_131)"/>
<path fill-rule="evenodd" clip-rule="evenodd" d="M44.766 68.222C49.409 66.104 54.568 64.926 60 64.926C65.432 64.926 70.591 66.104 75.234 68.222C77.745 69.367 80.713 68.258 81.858 65.747C83.003 63.237 81.895 60.269 79.384 59.123C73.476 56.429 66.912 54.926 60 54.926C53.088 54.926 46.524 56.429 40.616 59.123C38.105 60.269 36.997 63.237 38.142 65.747C39.287 68.258 42.255 69.367 44.766 68.222Z" fill="url(#paint3_linear_5_131)"/>
<path fill-rule="evenodd" clip-rule="evenodd" d="M37.921 47.805C44.644 44.719 52.123 43 60 43C67.877 43 75.356 44.719 82.079 47.805C84.587 48.956 87.558 47.854 88.709 45.346C89.86 42.838 88.758 39.868 86.25 38.717C78.256 35.048 69.365 33 60 33C50.635 33 41.744 35.048 33.75 38.717C31.242 39.868 30.14 42.838 31.291 45.346C32.442 47.854 35.413 48.956 37.921 47.805Z" fill="url(#paint4_linear_5_131)"/>
<defs>
<linearGradient id="paint0_linear_5_131" x1="17" y1="18" x2="99" y2="105" gradientUnits="userSpaceOnUse">
<stop stop-color="#FF0CF5"/>
<stop offset="1" stop-color="#0575E6"/>
</linearGradient>
<linearGradient id="paint1_linear_5_131" x1="51" y1="111" x2="69" y2="111" gradientUnits="userSpaceOnUse">
<stop stop-color="#A83AFE"/>
<stop offset="1" stop-color="#6E59FE"/>
</linearGradient>
<linearGradient id="paint2_linear_5_131" x1="33.9687" y1="107.394" x2="86.0313" y2="107.394" gradientUnits="userSpaceOnUse">
<stop stop-color="#A83AFE"/>
<stop offset="1" stop-color="#6E59FE"/>
</linearGradient>
<linearGradient id="paint3_linear_5_131" x1="28" y1="58" x2="90" y2="83" gradientUnits="userSpaceOnUse">
<stop stop-color="#FF0CF5"/>
<stop offset="1" stop-color="#0575E6"/>
</linearGradient>
<linearGradient id="paint4_linear_5_131" x1="36" y1="30" x2="80" y2="56" gradientUnits="userSpaceOnUse">
<stop stop-color="#FF0CF5"/>
<stop offset="1" stop-color="#0575E6"/>
</linearGradient>
</defs>
</svg>
